X:2867
T:Polonäs
T:ur Kumlins notsamling (nr 203)
B:Kumlins notsamling, nr 203
B:http://www.smus.se/earkiv/fmk/browselarge.php?lang=sw&katalogid=Ma+4&bildnr=00040
O:Närke
R:Slängpolska
Z:Nils Liberg
N:Påminner en aning om [[Musik/1423|Näckens polska]]
M:3/4
L:1/16
K:Gm
G2>B2 d4>g4 | g2g2 g^faf d4 | d2ed c2dc B2cB | A2GA B2AG F2D2 |
G2>B2 d4>g4 | g2g2 g^faf d4 | d2ed c2dc B2AB | c2Bc d2B2 G4 ::
d2ed c2dc B2B2 | A2GA B2AG F2D2 | d2ed c2dc B2AB | c2Bc d2B2 G4 :|
(:musicend:)
(:music:)
